src/icons/custom-service.svg

<svg xmlns="http://www.w3.org/2000/svg" viewBox="0 0 22 22"><defs/><path d="M13.75 22c1.094 0 2.1432-.4346 2.9168-1.2082.7736-.7736 1.2082-1.8228 1.2082-2.9168V13.75h-2.75v4.125c0 .3647-.1449.7144-.4027.9723-.2579.2578-.6076.4027-.9723.4027H4.125c-.36467 0-.71441-.1449-.97227-.4027-.25786-.2579-.40273-.6076-.40273-.9723V8.25c0-.36467.14487-.71441.40273-.97227s.6076-.40273.97227-.40273H8.25v-2.75H4.125c-1.09402 0-2.14323.4346-2.91682 1.20818C.434597 6.10677 0 7.15598 0 8.25v9.625c0 1.094.434597 2.1432 1.20818 2.9168C1.98177 21.5654 3.03098 22 4.125 22h9.625z"/><path d="M17.875 0h-2.75v4.125H11v2.75h4.125V11h2.75V6.875H22v-2.75h-4.125V0z"/></svg>

<svg viewBox="0 0 22 22" fill="none" xmlns="http://www.w3.org/2000/svg">
<path d="M13.75 22C14.844 22 15.8932 21.5654 16.6668 20.7918C17.4404 20.0182 17.875 18.969 17.875 17.875V13.75H15.125V17.875C15.125 18.2397 14.9801 18.5894 14.7223 18.8473C14.4644 19.1051 14.1147 19.25 13.75 19.25H4.125C3.76033 19.25 3.41059 19.1051 3.15273 18.8473C2.89487 18.5894 2.75 18.2397 2.75 17.875V8.25C2.75 7.88533 2.89487 7.53559 3.15273 7.27773C3.41059 7.01987 3.76033 6.875 4.125 6.875H8.25V4.125H4.125C3.03098 4.125 1.98177 4.5596 1.20818 5.33318C0.434597 6.10677 0 7.15598 0 8.25V17.875C0 18.969 0.434597 20.0182 1.20818 20.7918C1.98177 21.5654 3.03098 22 4.125 22H13.75Z" fill="#6B6D85"/>
<path d="M17.875 0H15.125V4.125H11V6.875H15.125V11H17.875V6.875H22V4.125H17.875V0Z" fill="#6B6D85"/>
</svg>
